dist/assets/images/product-icons/mechantron.svg

<svg width="135" height="103" viewBox="0 0 135 103" fill="none" xmlns="http://www.w3.org/2000/svg">
<path opacity="0.6" fill-rule="evenodd" clip-rule="evenodd" d="M9.52165 0.417564C5.06484 1.61796 1.5691 5.1695 0.393396 9.69113C0.0529977 10.9998 0 16.6056 0 51.2576C0 77.3972 0.0936029 91.8052 0.269207 92.7327C1.19653 97.631 5.43582 101.81 10.3976 102.718C11.4897 102.918 28.7638 103.003 67.614 103C128.309 102.995 125.283 103.07 128.217 101.5C131.381 99.8086 134.078 96.1778 134.73 92.7327C134.905 91.8052 134.999 77.3972 134.999 51.2576C134.999 7.17624 135.094 9.79466 133.378 6.56878C132.93 5.72731 131.889 4.39433 131.065 3.60674C128.341 1.00416 125.54 0 121.005 0C118.562 0 118.105 0.0713102 117.501 0.547507C116.621 1.24054 116.546 2.64246 117.349 3.39175C117.807 3.81935 118.398 3.91628 121.107 4.00925C123.851 4.10327 124.534 4.21763 125.783 4.79367C127.859 5.75108 129.059 6.91371 130.05 8.93101L130.912 10.6855V51.4967V92.3078L130.205 93.8185C129.289 95.7761 127.477 97.5269 125.565 98.3003L124.057 98.9106L68.6861 98.9841C33.7632 99.0303 12.6999 98.9624 11.6489 98.8005C8.43902 98.3058 6.095 96.5981 4.78508 93.7995L4.08689 92.3078V51.5022V10.6966L4.77269 9.23184C5.75143 7.14164 6.90947 5.94705 8.91574 4.95768L10.6673 4.09376L61.2529 3.96171C110.944 3.83203 111.845 3.82067 112.213 3.31701C112.834 2.46577 112.684 1.17161 111.892 0.547507L111.198 0L61.0699 0.017432C18.1656 0.0322224 10.7377 0.089799 9.52165 0.417564ZM22.7874 10.5632C19.7288 11.7792 17.914 14.3416 17.7189 17.7194L17.6018 19.7444L15.5803 19.8616C11.2611 20.112 8.43217 22.961 8.44008 27.0527C8.44482 29.5871 10.2378 32.2924 12.609 33.3431C13.2391 33.6222 14.6345 33.9172 15.7103 33.9988L17.6659 34.147V48.9815C17.6659 63.5453 17.6756 63.8265 18.2035 64.3939C18.9352 65.1807 20.2936 65.1648 21.0477 64.3608L21.6209 63.7494V48.9102V34.0707H25.581H29.5411L29.4701 60.1519L29.3992 86.2332L28.7851 87.0955C27.1061 89.4538 24.071 89.4353 22.2965 87.0564C21.7799 86.3639 21.7488 85.9308 21.6755 78.3618C21.6006 70.6505 21.5803 70.3771 21.0364 69.7971C20.287 68.9982 18.9299 68.995 18.1903 69.79C17.6519 70.3689 17.6411 70.5717 17.7186 78.8359L17.7977 87.2896L18.5798 88.7042C20.0714 91.4013 22.4976 92.827 25.576 92.8149C27.1952 92.8085 27.8014 92.6789 28.9212 92.0991C30.5986 91.231 31.9576 89.865 32.7531 88.2476L33.3543 87.0255L33.4252 60.5859L33.4959 34.1462L35.4196 34.0004C37.7523 33.8237 38.8821 33.3792 40.3315 32.0674C43.0605 29.5979 43.4526 25.9574 41.3266 22.8266C40.0715 20.978 38.2071 20.0145 35.5923 19.8627L33.5512 19.7444L33.4297 17.8618C33.291 15.7161 32.6352 14.0215 31.3968 12.6085C29.4583 10.3971 25.5444 9.46743 22.7874 10.5632ZM63.2808 10.2674C61.7695 10.7658 60.3807 11.6717 59.3777 12.8132C57.3699 15.0981 57.4801 13.3618 57.4801 42.7014V68.9337H55.946C51.3882 68.9337 48.2516 71.8495 48.2516 76.0864C48.2516 80.2101 51.5269 83.1959 56.0499 83.1959H57.4242L57.5238 85.2427C57.744 89.7604 60.8363 92.7874 65.2583 92.8136C69.6229 92.8395 72.8312 89.7142 73.2209 85.0568L73.3709 83.2666L75.3208 83.119C77.6788 82.9405 79.2342 82.2443 80.5602 80.7742C83.1945 77.8531 83.0993 73.9136 80.3271 71.1412C78.7923 69.6059 77.0808 68.9337 74.7075 68.9337H73.3103L73.2394 42.5884L73.1684 16.243L72.4776 14.7677C71.6299 12.9566 70.18 11.4633 68.5822 10.7552C67.2802 10.1787 64.3642 9.91008 63.2808 10.2674ZM102.52 10.4536C100.845 10.97 98.5997 13.0575 97.7905 14.8511L97.1624 16.243L97.0833 29.8737L97.0045 43.5046L95.0892 43.6496C92.8324 43.8204 91.6828 44.2528 90.3368 45.4368C87.159 48.2317 87.1778 53.178 90.3771 55.9987C91.7395 57.1999 93.562 57.8409 95.6157 57.8409H97.0055L97.0838 72.3012C97.1608 86.4791 97.1735 86.7854 97.7322 87.9964C98.0454 88.6754 98.7898 89.7615 99.3862 90.4093C102.467 93.757 107.921 93.6421 110.976 90.1653C112.998 87.8638 112.953 88.26 113.054 72.2061L113.143 57.9149L115.057 57.7699C117.361 57.5956 118.512 57.1479 119.909 55.8836C122.829 53.2411 122.846 48.1942 119.944 45.5678C118.573 44.3273 117.303 43.8313 115.041 43.6538L113.145 43.5048L113.064 29.8739L112.983 16.243L112.355 14.8511C110.682 11.1443 106.437 9.2461 102.52 10.4536ZM27.6463 14.7214C28.8481 15.6202 29.304 16.4918 29.4572 18.1834L29.6043 19.8085H25.6126H21.6209V18.5714C21.6209 17.8639 21.8524 16.8552 22.1617 16.2153C23.1508 14.1689 25.9045 13.4186 27.6463 14.7214ZM67.4766 14.7325C67.8518 15.0128 68.396 15.6453 68.6861 16.1387C69.2023 17.0166 69.215 17.5768 69.2843 42.9845L69.3552 68.9337H65.3952H61.4351V42.9803C61.4351 18.3744 61.4602 16.9794 61.9161 16.1067C62.9151 14.1951 65.8012 13.4817 67.4766 14.7325ZM106.715 14.5168C107.359 14.8094 108.055 15.3931 108.362 15.8975C108.877 16.7432 108.894 17.1996 108.895 30.175L108.896 43.5788H105.073H101.249V30.2278C101.249 15.6754 101.224 15.935 102.761 14.8421C104.085 13.9011 105.165 13.8121 106.715 14.5168ZM44.0788 18.835C43.7634 19.1712 43.5056 19.771 43.5056 20.1677C43.5056 21.0853 44.584 22.1856 45.4831 22.1856C45.8588 22.1856 46.4573 21.8937 46.8133 21.5372C47.1693 21.1806 47.4606 20.5811 47.4606 20.2047C47.4606 19.284 46.3627 18.2239 45.4093 18.2239C44.9589 18.2239 44.42 18.4713 44.0788 18.835ZM83.8471 18.7521C83.122 19.4784 83.1473 20.9477 83.8969 21.647C84.897 22.5804 86.2655 22.3181 86.9099 21.0699C87.9073 19.1374 85.3753 17.2213 83.8471 18.7521ZM123.153 18.9198C122.853 19.3025 122.607 19.902 122.607 20.2522C122.607 21.0921 123.725 22.1856 124.584 22.1856C125.517 22.1856 126.562 21.0861 126.562 20.1038C126.562 18.4227 124.19 17.599 123.153 18.9198ZM36.9138 24.233C38.2435 24.8983 38.928 26.391 38.5235 27.7436C38.3563 28.3027 37.9097 29.0042 37.5311 29.3024C36.8611 29.8303 36.5415 29.8449 25.576 29.8449C14.7732 29.8449 14.2822 29.8235 13.6502 29.3256C11.7341 27.8157 12.1918 24.9897 14.5021 24.0668C14.8984 23.9086 19.3133 23.7972 25.576 23.7874C34.984 23.7726 36.0801 23.8157 36.9138 24.233ZM44.0329 27.732C42.7802 28.9868 43.986 31.3994 45.6948 31.0569C46.7492 30.8459 47.1416 30.4529 47.3522 29.3967C47.6942 27.6849 45.2856 26.4771 44.0329 27.732ZM83.832 27.747C82.558 29.0232 83.9533 31.6057 85.5994 31.0186C85.9836 30.8815 86.5355 30.4499 86.8255 30.0599C87.2917 29.4323 87.3135 29.2554 87.014 28.5309C86.4368 27.1353 84.8364 26.741 83.832 27.747ZM123.153 27.8997C122.853 28.2824 122.607 28.8819 122.607 29.2321C122.607 30.072 123.725 31.1654 124.584 31.1654C125.503 31.1654 126.562 30.0657 126.562 29.1106C126.562 27.3754 124.218 26.5429 123.153 27.8997ZM44.0329 36.7118C43.0789 37.6674 43.4758 39.4179 44.7567 39.9058C45.6605 40.2499 46.7653 39.8004 47.1627 38.9264C47.5798 38.0097 47.5392 37.6756 46.914 36.8795C46.2293 36.0074 44.8181 35.9253 44.0329 36.7118ZM83.7561 36.6667C83.0582 37.4392 83.1913 38.9491 84.0145 39.5978C84.9666 40.3481 85.5934 40.2853 86.531 39.3464C87.1704 38.7059 87.2948 38.4045 87.1585 37.8277C86.8028 36.3215 84.7124 35.6081 83.7561 36.6667ZM123.18 36.7948C122.23 37.8082 122.456 39.1248 123.691 39.7645C124.608 40.2396 125.635 40.0323 126.172 39.264C127.537 37.3122 124.807 35.0598 123.18 36.7948ZM84.6381 45.0892C83.2691 45.5845 82.8156 47.5299 83.8505 48.4681C85.0684 49.5721 87.0989 48.6622 87.0989 47.0123C87.0989 45.7759 85.7197 44.6981 84.6381 45.0892ZM123.762 45.2905C122.101 45.9901 122.221 48.1619 123.958 48.8233C124.902 49.1828 126.231 48.5602 126.459 47.6519C126.89 45.9278 125.383 44.6078 123.762 45.2905ZM43.9161 45.7506C43.1475 46.8496 43.4344 48.1458 44.5774 48.738C45.4704 49.2004 46.407 48.93 47.0385 48.0267C47.6009 47.2225 47.5706 46.6953 46.914 45.8594C46.1852 44.931 44.531 44.8711 43.9161 45.7506ZM116.565 48.0251C117.97 48.7528 118.529 50.7434 117.751 52.251C116.984 53.7377 116.903 53.7472 105.073 53.7472C93.2424 53.7472 93.1612 53.7377 92.3939 52.251C91.6451 50.8007 92.1356 48.7612 93.3827 48.139C94.4516 47.6057 94.8355 47.5896 105.468 47.6313C113.574 47.6636 116.034 47.7507 116.565 48.0251ZM44.8239 54.0665C42.7298 54.838 43.3052 57.8409 45.5469 57.8409C46.3801 57.8409 47.4606 56.8584 47.4606 56.1009C47.4606 55.32 46.8136 54.4172 46.0666 54.1565C45.6299 54.0039 45.2605 53.8887 45.246 53.9001C45.2313 53.9114 45.0414 53.9865 44.8239 54.0665ZM84.0335 54.4117C83.088 55.1565 83.0181 56.8072 83.9059 57.4297C85.8243 58.7759 88.2248 56.561 86.7008 54.8506C85.8304 53.8739 84.9086 53.7221 84.0335 54.4117ZM123.744 54.1452C121.879 54.8979 122.555 57.8409 124.593 57.8409C126.677 57.8409 127.333 55.2212 125.488 54.2656C124.645 53.829 124.545 53.8222 123.744 54.1452ZM108.896 71.8651C108.896 87.4793 108.934 87.1296 107.118 88.2539C105.321 89.3661 102.868 88.7898 101.758 86.9943C101.272 86.2073 101.249 85.5415 101.249 72.0059V57.8409H105.073H108.896V71.8651ZM44.2003 63.4066C43.2922 64.1221 43.2532 65.4347 44.1157 66.2466C44.9254 67.0083 46.0086 66.9785 46.8133 66.1724C47.8287 65.1553 47.6454 63.8973 46.3869 63.2455C45.3921 62.7302 45.0243 62.7571 44.2003 63.4066ZM84.0145 63.4066C83.5054 63.8075 83.3197 64.1958 83.3197 64.8592C83.3197 67.2561 86.6032 67.5276 87.1585 65.1767C87.2948 64.5999 87.1704 64.2985 86.531 63.658C85.5934 62.7191 84.9666 62.6563 84.0145 63.4066ZM123.254 63.5075C122.463 64.2996 122.428 65.2018 123.153 66.1249C124.235 67.5022 126.562 66.6505 126.562 64.8769C126.562 63.9594 125.483 62.8591 124.584 62.8591C124.208 62.8591 123.61 63.1509 123.254 63.5075ZM44.0788 72.4501C42.3204 74.3251 44.9979 76.971 46.8133 75.1523C47.1693 74.7957 47.4606 74.1962 47.4606 73.8198C47.4606 72.8991 46.3627 71.839 45.4093 71.839C44.9589 71.839 44.42 72.0864 44.0788 72.4501ZM83.8471 72.3672C83.5207 72.6942 83.3197 73.2475 83.3197 73.8198C83.3197 76.0603 86.1376 76.5922 86.9971 74.5142C87.7684 72.649 85.2675 70.9444 83.8471 72.3672ZM123.254 72.4874C122.898 72.8439 122.607 73.4435 122.607 73.8198C122.607 74.6803 123.698 75.8007 124.537 75.8007C125.526 75.8007 126.562 74.8396 126.562 73.9207C126.562 72.9385 125.517 71.839 124.584 71.839C124.208 71.839 123.61 72.1308 123.254 72.4874ZM77.1704 73.5805C78.6562 74.6848 78.7962 76.8577 77.4671 78.1891L76.6874 78.97H65.3435H53.9996L53.1031 78.0721C51.8831 76.85 51.8499 75.4336 53.0103 74.1098C53.4523 73.6056 54.0753 73.1397 54.3946 73.0748C54.7139 73.0095 59.8017 72.9723 65.7008 72.9918C76.145 73.0264 76.4459 73.042 77.1704 73.5805ZM44.0329 81.3471C42.9023 82.4796 43.8739 84.7805 45.4831 84.7805C46.3622 84.7805 47.4606 83.6802 47.4606 82.7997C47.4606 81.1878 45.1635 80.2145 44.0329 81.3471ZM83.8471 81.3471C83.0619 82.1336 83.1439 83.5471 84.0145 84.233C85.1565 85.1329 86.2681 84.8598 86.99 83.502C87.2503 83.0131 87.2516 82.7213 86.9971 82.1053C86.44 80.7584 84.8234 80.369 83.8471 81.3471ZM123.153 81.5148C122.853 81.8975 122.607 82.497 122.607 82.8472C122.607 83.6871 123.725 84.7805 124.584 84.7805C125.517 84.7805 126.562 83.681 126.562 82.6988C126.562 81.0177 124.19 80.1939 123.153 81.5148ZM69.2408 84.7055C68.9228 87.4153 67.514 88.8421 65.1914 88.807C63.0361 88.7742 61.4351 86.9851 61.4351 84.6094V83.1959H65.4266H69.4177L69.2408 84.7055Z" fill="#231F20"/>
</svg>

<svg width="135" height="103" fill="none" xmlns="http://www.w3.org/2000/svg"><path opacity=".6" fill-rule="evenodd" clip-rule="evenodd" d="M9.522.418C5.065 1.618 1.569 5.17.393 9.69.053 11 0 16.606 0 51.258c0 26.14.094 40.547.27 41.475.927 4.898 5.166 9.077 10.128 9.985 1.092.2 18.366.285 57.216.282 60.695-.005 57.669.07 60.603-1.5 3.164-1.691 5.861-5.322 6.513-8.767.175-.928.269-15.336.269-41.475 0-44.082.095-41.463-1.621-44.69-.448-.84-1.489-2.174-2.313-2.961C128.341 1.004 125.54 0 121.005 0c-2.443 0-2.9.071-3.504.548-.88.693-.955 2.094-.152 2.844.458.427 1.049.524 3.758.617 2.744.094 3.427.209 4.676.785 2.076.957 3.276 2.12 4.267 4.137l.862 1.755v81.622l-.707 1.51c-.916 1.958-2.728 3.709-4.64 4.482l-1.508.61-55.37.074c-34.924.046-55.987-.022-57.038-.183-3.21-.495-5.554-2.203-6.864-5.002l-.698-1.491V10.697l.686-1.465c.978-2.09 2.136-3.285 4.143-4.274l1.751-.864 50.586-.132c49.691-.13 50.592-.141 50.96-.645.621-.851.471-2.145-.321-2.77L111.198 0 61.07.017C18.166.032 10.738.09 9.522.417zm13.265 10.145c-3.058 1.216-4.873 3.779-5.068 7.156l-.117 2.025-2.022.118c-4.319.25-7.148 3.099-7.14 7.19.005 2.535 1.798 5.24 4.169 6.291.63.28 2.025.574 3.101.656l1.956.148v14.834c0 14.564.01 14.846.537 15.413.732.787 2.09.77 2.845-.033l.573-.612V34.07h7.92l-.07 26.082-.072 26.081-.614.862c-1.679 2.359-4.714 2.34-6.488-.039-.517-.692-.548-1.125-.622-8.694-.074-7.712-.095-7.985-.639-8.565-.749-.799-2.106-.802-2.846-.007-.538.579-.549.782-.471 9.046l.079 8.454.782 1.414c1.491 2.697 3.918 4.123 6.996 4.11 1.62-.005 2.225-.135 3.345-.715 1.678-.868 3.037-2.234 3.832-3.851l.601-1.223.071-26.44.07-26.439L35.42 34c2.332-.176 3.462-.62 4.911-1.933 2.73-2.47 3.122-6.11.996-9.24-1.255-1.849-3.12-2.813-5.735-2.964l-2.04-.119-.122-1.882c-.139-2.146-.795-3.84-2.033-5.253-1.939-2.212-5.853-3.142-8.61-2.046zm40.494-.296c-1.511.499-2.9 1.405-3.903 2.546-2.008 2.285-1.898.549-1.898 29.888v26.233h-1.534c-4.558 0-7.694 2.916-7.694 7.152 0 4.124 3.275 7.11 7.798 7.11h1.374l.1 2.047c.22 4.517 3.312 7.544 7.734 7.57 4.365.026 7.573-3.099 7.963-7.756l.15-1.79 1.95-.148c2.358-.178 3.913-.875 5.24-2.345 2.633-2.92 2.538-6.86-.234-9.633-1.535-1.535-3.246-2.207-5.62-2.207H73.31l-.07-26.346-.072-26.345-.69-1.475c-.848-1.811-2.298-3.305-3.896-4.013-1.302-.576-4.218-.845-5.301-.488zm39.239.187c-1.675.516-3.92 2.603-4.73 4.397l-.628 1.392-.079 13.63-.079 13.632-1.915.145c-2.257.17-3.406.603-4.752 1.787-3.178 2.795-3.16 7.741.04 10.562 1.363 1.2 3.185 1.842 5.239 1.842h1.39l.078 14.46c.077 14.178.09 14.484.648 15.695.313.68 1.058 1.766 1.654 2.413 3.081 3.348 8.535 3.233 11.59-.244 2.022-2.301 1.977-1.905 2.078-17.959l.089-14.291 1.914-.145c2.304-.174 3.455-.622 4.852-1.886 2.92-2.643 2.937-7.69.035-10.316-1.371-1.24-2.641-1.737-4.903-1.914l-1.896-.15-.081-13.63-.081-13.631-.628-1.392c-1.673-3.707-5.918-5.605-9.835-4.397zM27.646 14.72c1.202.9 1.658 1.77 1.811 3.462l.147 1.625h-7.983V18.57c0-.707.231-1.716.54-2.356.99-2.046 3.743-2.796 5.485-1.494zm39.83.011c.376.28.92.913 1.21 1.407.516.878.529 1.438.598 26.845l.071 25.95h-7.92V42.98c0-24.606.025-26 .481-26.873 1-1.912 3.885-2.625 5.56-1.374zm39.239-.215c.644.292 1.34.876 1.647 1.38.515.846.532 1.303.533 14.278l.001 13.404h-7.647v-13.35c0-14.553-.025-14.293 1.512-15.386 1.324-.94 2.404-1.03 3.954-.325zm-62.636 4.318c-.316.336-.573.936-.573 1.333 0 .917 1.078 2.018 1.977 2.018.376 0 .974-.292 1.33-.649.356-.356.648-.956.648-1.332 0-.921-1.098-1.981-2.052-1.981-.45 0-.989.247-1.33.611zm39.768-.083c-.725.726-.7 2.196.05 2.895 1 .933 2.368.671 3.013-.577.997-1.933-1.535-3.849-3.063-2.318zm39.306.168c-.3.382-.546.982-.546 1.332 0 .84 1.118 1.934 1.977 1.934.933 0 1.978-1.1 1.978-2.082 0-1.681-2.372-2.505-3.409-1.184zm-86.24 5.313c1.33.665 2.015 2.158 1.61 3.51-.167.56-.613 1.261-.992 1.56-.67.527-.99.542-11.955.542-10.803 0-11.294-.021-11.926-.52-1.916-1.51-1.458-4.335.852-5.258.396-.158 4.811-.27 11.074-.28 9.408-.014 10.504.029 11.338.446zm7.12 3.499c-1.253 1.255-.047 3.667 1.662 3.325 1.054-.211 1.447-.604 1.657-1.66.342-1.712-2.066-2.92-3.32-1.665zm39.799.015c-1.274 1.276.121 3.859 1.767 3.272.385-.137.936-.57 1.227-.96.466-.627.488-.804.188-1.528-.577-1.396-2.178-1.79-3.182-.784zm39.321.153c-.3.382-.546.982-.546 1.332 0 .84 1.118 1.933 1.977 1.933.919 0 1.978-1.1 1.978-2.054 0-1.736-2.344-2.568-3.409-1.211zm-79.12 8.812c-.954.955-.557 2.706.724 3.194.904.344 2.008-.106 2.406-.98.417-.916.376-1.25-.249-2.047-.685-.872-2.096-.954-2.881-.167zm39.723-.045c-.698.772-.565 2.282.258 2.93.953.751 1.58.688 2.517-.25.64-.641.764-.943.627-1.52-.355-1.505-2.446-2.219-3.402-1.16zm39.424.128c-.95 1.013-.724 2.33.511 2.97.917.475 1.944.267 2.481-.501 1.365-1.952-1.365-4.204-2.992-2.47zm-38.542 8.294c-1.369.495-1.822 2.44-.788 3.38 1.218 1.103 3.249.193 3.249-1.457 0-1.236-1.38-2.314-2.46-1.923zm39.124.202c-1.661.7-1.541 2.87.196 3.532.944.36 2.273-.263 2.501-1.171.431-1.724-1.076-3.044-2.697-2.361zm-79.846.46c-.768 1.099-.482 2.395.661 2.987.893.462 1.83.192 2.462-.711.562-.805.532-1.332-.125-2.168-.729-.928-2.383-.988-2.998-.108zm72.649 2.274c1.405.728 1.964 2.718 1.186 4.226-.767 1.487-.848 1.496-12.678 1.496s-11.912-.01-12.68-1.496c-.748-1.45-.257-3.49.99-4.112 1.069-.533 1.453-.55 12.085-.508 8.106.033 10.566.12 11.097.394zm-71.741 6.041c-2.094.772-1.519 3.775.723 3.775.833 0 1.914-.983 1.914-1.74 0-.781-.647-1.684-1.394-1.944-.437-.153-.806-.268-.821-.257a5.74 5.74 0 01-.422.166zm39.21.346c-.946.745-1.016 2.395-.128 3.018 1.918 1.346 4.319-.869 2.795-2.58-.87-.976-1.792-1.128-2.667-.438zm39.71-.267c-1.865.753-1.189 3.696.849 3.696 2.084 0 2.74-2.62.895-3.575-.843-.437-.943-.444-1.744-.12zm-14.848 17.72c0 15.614.038 15.265-1.778 16.389-1.797 1.112-4.25.536-5.36-1.26-.486-.787-.509-1.453-.509-14.988V57.84h7.647v14.024zM44.2 63.407c-.908.715-.947 2.028-.084 2.84.81.761 1.893.731 2.697-.075 1.016-1.017.832-2.275-.426-2.926-.995-.516-1.363-.489-2.187.16zm39.814 0c-.509.4-.694.789-.694 1.452 0 2.397 3.283 2.669 3.839.318.136-.577.011-.879-.628-1.519-.938-.939-1.564-1.002-2.517-.251zm39.24.1c-.791.793-.826 1.695-.101 2.618 1.082 1.377 3.409.525 3.409-1.248 0-.918-1.079-2.018-1.978-2.018-.376 0-.974.292-1.33.648zM44.079 72.45c-1.759 1.875.919 4.521 2.734 2.702.356-.356.648-.956.648-1.332 0-.92-1.098-1.981-2.052-1.981-.45 0-.989.247-1.33.611zm39.768-.083c-.326.327-.527.88-.527 1.453 0 2.24 2.818 2.772 3.677.694.771-1.865-1.73-3.57-3.15-2.147zm39.407.12c-.356.357-.647.957-.647 1.333 0 .86 1.091 1.98 1.93 1.98.989 0 2.025-.96 2.025-1.88 0-.981-1.045-2.081-1.978-2.081-.376 0-.974.292-1.33.648zM77.17 73.581c1.486 1.104 1.626 3.277.297 4.608l-.78.781H54l-.897-.898c-1.22-1.222-1.253-2.638-.093-3.962.442-.504 1.065-.97 1.385-1.035.319-.066 5.407-.103 11.306-.083 10.444.034 10.745.05 11.47.588zm-33.137 7.766c-1.13 1.133-.16 3.434 1.45 3.434.88 0 1.978-1.1 1.978-1.981 0-1.612-2.297-2.585-3.428-1.453zm39.814 0c-.785.787-.703 2.2.168 2.886 1.141.9 2.253.627 2.975-.731.26-.489.262-.78.007-1.397-.557-1.347-2.174-1.736-3.15-.758zm39.306.168c-.3.382-.546.982-.546 1.332 0 .84 1.118 1.934 1.977 1.934.933 0 1.978-1.1 1.978-2.082 0-1.681-2.372-2.505-3.409-1.184zm-53.912 3.19c-.318 2.71-1.727 4.137-4.05 4.102-2.155-.033-3.756-1.822-3.756-4.198v-1.413h7.982l-.176 1.51z" fill="#231F20"/></svg>
